X:1770
T:Peggy Ryan's Fancy
T:The Murroe
S:Sully's Session Tunes Book 1
Z:Nigel Gatherer
L:1/8
M:2/4
K:G
Bd G>A|Bd GB|A2 FA|GE ED|Bd G>A|
Bd GB|A2 FA|AG G>A::B/^c/d ef|g2 g>a|
f/e/d ef|ed BA|B/^c/d ef|g2 g>a|f/e/d ef|e2 >Ad:|
